X:1
T: James Macpherson's Strathspey
C:William Macpherson
R:Strathspey
Q: 128
K:D
M:4/4
L:1/16
|:((3A2B2c2) |d3D CD3 B,D3 A,D3|G,E3 ^G,E3 A,A3 ((3A2B2c2) |d3D CD3 B,D3 A,D3|G,E3 A,A3 AGFE D2D2|
d3D CD3 B,D3 A,D3|G,E3 ^G,E3 A,A3 ((3A2B2c2) |d3D CD3 B,D3 A,D3|G,E3 A,A3 AGFE D2D2|
B3G Bc3 AD3 F4|E3F GFED CE3 A,4|B3G Bd3 AD3 F4|E3^G B3d cA3 ((3A2B2c2) |
d3D CD3 B,D3 A,D3|G,E3 ^G,E3 A,A3 A2Bc|d3D CD3 B,D3 A,D3|G,E3 A,A3 D4 D2:|
